src/assets/icons/light-bulb.svg

<svg width="20" height="20" viewBox="0 0 20 20" fill="none" xmlns="http://www.w3.org/2000/svg">
<path d="M10 0.625C6.20304 0.625 3.125 3.70304 3.125 7.5C3.125 10.0423 4.50526 12.2615 6.5543 13.4504C7.12551 13.7818 7.48321 14.2903 7.4994 14.8021C7.50833 15.0844 7.70547 15.3257 7.98033 15.3906C8.27315 15.4598 8.57154 15.5143 8.87466 15.5532C9.14433 15.5879 9.37515 15.3719 9.37515 15.1V11.2158C9.10908 11.1864 8.84836 11.1383 8.59436 11.073C8.26008 10.9869 8.05884 10.6462 8.14488 10.3119C8.23092 9.97761 8.57165 9.77637 8.90594 9.86241C9.25495 9.95224 9.62147 10.0002 10.0002 10.0002C10.3788 10.0002 10.7454 9.95224 11.0944 9.86241C11.4286 9.77637 11.7694 9.97761 11.8554 10.3119C11.9415 10.6462 11.7402 10.9869 11.4059 11.073C11.1519 11.1383 10.8912 11.1864 10.6252 11.2158V15.0999C10.6252 15.3718 10.856 15.5879 11.1257 15.5532C11.4287 15.5143 11.727 15.4598 12.0197 15.3906C12.2945 15.3257 12.4917 15.0844 12.5006 14.8021C12.5168 14.2903 12.8745 13.7818 13.4457 13.4504C15.4947 12.2615 16.875 10.0423 16.875 7.5C16.875 3.70304 13.797 0.625 10 0.625Z" fill="#A685FA"/>
<path fill-rule="evenodd" clip-rule="evenodd" d="M7.51095 16.583C7.57528 16.2439 7.90235 16.0211 8.24148 16.0855C8.81062 16.1934 9.39841 16.25 10 16.25C10.6016 16.25 11.1894 16.1934 11.7585 16.0855C12.0977 16.0211 12.4247 16.2439 12.4891 16.583C12.5534 16.9222 12.3306 17.2492 11.9915 17.3136C11.3459 17.436 10.6802 17.5 10 17.5C9.31985 17.5 8.65407 17.436 8.00852 17.3136C7.66939 17.2492 7.44662 16.9222 7.51095 16.583Z" fill="#A685FA"/>
<path fill-rule="evenodd" clip-rule="evenodd" d="M8.12839 18.62C8.16431 18.2767 8.47172 18.0275 8.81503 18.0634C9.20426 18.1041 9.59958 18.125 10 18.125C10.4004 18.125 10.7957 18.1041 11.185 18.0634C11.5283 18.0275 11.8357 18.2767 11.8716 18.62C11.9075 18.9633 11.6583 19.2707 11.315 19.3066C10.8827 19.3518 10.4439 19.375 10 19.375C9.55607 19.375 9.11733 19.3518 8.68497 19.3066C8.34167 19.2707 8.09248 18.9633 8.12839 18.62Z" fill="#A685FA"/>
</svg>

<svg xmlns="http://www.w3.org/2000/svg" width="20" height="20" fill="#a685fa" xmlns:v="https://vecta.io/nano"><path d="M10 .625C6.203.625 3.125 3.703 3.125 7.5c0 2.542 1.38 4.762 3.429 5.95.571.331.929.84.945 1.352.009.282.206.524.481.588.293.069.591.124.894.163.27.035.5-.181.5-.453v-3.884a5.61 5.61 0 0 1-.781-.143c-.334-.086-.536-.427-.449-.761s.427-.536.761-.449c.349.09.716.138 1.094.138s.745-.048 1.094-.138c.334-.086.675.115.761.449s-.115.675-.449.761a5.61 5.61 0 0 1-.781.143V15.1c0 .272.231.488.501.453a8.7 8.7 0 0 0 .894-.163c.275-.065.472-.306.481-.588.016-.512.374-1.02.945-1.352 2.049-1.189 3.429-3.408 3.429-5.95 0-3.797-3.078-6.875-6.875-6.875z"/><path d="M7.511 16.583c.064-.339.391-.562.731-.497.569.108 1.157.165 1.759.165s1.189-.057 1.758-.165c.339-.064.666.158.731.497s-.159.666-.498.731A10.72 10.72 0 0 1 10 17.5a10.7 10.7 0 0 1-1.991-.186c-.339-.064-.562-.391-.498-.731zm.617 2.037c.036-.343.343-.593.687-.557a11.39 11.39 0 0 0 1.185.062 11.31 11.31 0 0 0 1.185-.062c.343-.036.651.213.687.557s-.213.651-.557.687c-.432.045-.871.068-1.315.068s-.883-.023-1.315-.068c-.343-.036-.592-.343-.557-.687z" fill-rule="evenodd"/></svg>
